src/normal/lock.svg

<!-- Generated by IcoMoon.io -->
<svg version="1.1" xmlns="http://www.w3.org/2000/svg" width="24" height="24" viewBox="0 0 24 24">
<title>lock</title>
<path d="M19 9v-3c0-2-2-5-7-5s-7 3-7 5v3h-2v11c0 1.654 1.346 3 3 3h12c1.654 0 3-1.346 3-3v-11h-2zM7 5c0 0 1-2 5-2s5 2 5 2v4h-10v-4zM19 20c0 0.551-0.448 1-1 1h-12c-0.552 0-1-0.449-1-1v-9h14v9zM11 16.723v2.277h2v-2.277c0.596-0.347 1-0.984 1-1.723 0-1.104-0.896-2-2-2s-2 0.896-2 2c0 0.738 0.404 1.376 1 1.723z"></path>
</svg>

<svg xmlns="http://www.w3.org/2000/svg" width="24" height="24"><path d="M19 9V6c0-2-2-5-7-5S5 4 5 6v3H3v11c0 1.654 1.346 3 3 3h12c1.654 0 3-1.346 3-3V9h-2zM7 5s1-2 5-2 5 2 5 2v4H7V5zm12 15c0 .551-.448 1-1 1H6c-.552 0-1-.449-1-1v-9h14v9zm-8-3.277V19h2v-2.277A1.99 1.99 0 0014 15a2 2 0 00-4 0c0 .738.404 1.376 1 1.723z"/></svg>
